X:1
T:Title
%%score { ( 1 3 ) | ( 2 4 ) }
L:1/8
M:4/4
K:Bb
V:1 treble nm="Grand Piano"
V:3 treble 
V:2 bass 
V:4 bass 
V:1
 z4 z2[Q:1/4=100] [DF]2 | [DB]3 [FA] GABG | [DF]6 [DB]2 | [EA]3 [EG] [A,E]2 [A,EG]2 | %4
[M:3/4] [DF]6 |[M:1/4] [DF]2 |[M:4/4] [DB]3 [FA] GABG | [B,DF]6 [DFB]2 | A3 F c2 F2 | %9
[M:5/8] [DB]- [DB]3 z |[M:3/8] BAB |[M:4/4] c6[K:bass][K:treble] z2 | d6 z2 | %13
 c6[K:bass][K:treble] z2 | B6 z2 | B6 z2 | G6 z2 | z DDD DGAc |[M:7/8] B-B-B- B- B3 |] %19
V:2
 z4 z2 [B,,B,]2 | [B,,F,]3 [D,B,] [E,B,E][E,B,E][E,G,E][E,B,E] | [B,,B,]6 [B,,F,]2 | %3
 [F,,F,]3 [F,,F,] F,,2 F,,2 |[M:3/4] [B,,B,]6 |[M:1/4] [B,,B,]2 | %6
[M:4/4] [B,,F,]3 [D,B,] [E,B,E][E,B,E][E,G,E][E,B,E] | B,,6 B,,2 | %8
 [F,CE]3 [F,CE] [F,A,E]2 [F,A,E]2 |[M:5/8] [B,,F,B,]- [B,,F,B,]3 z |[M:3/8] DCD | %11
[M:4/4] E6[K:treble] z2 | F6[K:bass] z2 | E6[K:treble] z2 | %14
 D[K:bass][B,,F,][B,,F,][B,,G,] [B,,F,][K:treble]FFE | D[B,,F,][B,,F,][B,,G,] .[B,,F,]2 z2 | %16
 z [E,B,][E,B,][E,B,] .[E,B,]2 z2 | z [F,B,][F,B,][F,B,] .[F,B,]2 z2 | %18
[M:7/8] z [B,,F,][B,,G,] [B,,G,] [B,,F,]3 |] %19
V:3
 x8 | x8 | x8 | x8 |[M:3/4] x6 |[M:1/4] x2 |[M:4/4] x8 | x8 | x8 |[M:5/8] x5 |[M:3/8] x3 | %11
[M:4/4] z[K:bass] F,F,F, F,[K:treble]=Bc_d | z B,B,B, B,BAB | z[K:bass] F,F,F, F,[K:treble]Bdc | %14
 z DDE Dddc | z DDE DdcB | z EEE EcBG | F6 z2 |[M:7/8] z DE E D3 |] %19
V:4
 x8 | x8 | x8 | x8 |[M:3/4] x6 |[M:1/4] x2 |[M:4/4] x8 | x8 | x8 |[M:5/8] x5 |[M:3/8] x3 | %11
[M:4/4] z F,,A,,C, z[K:treble] DE=E | z[K:bass] B,,D,F, z DCD | z F,,A,,C, z[K:treble] DFE | %14
 x[K:bass] x4[K:treble] x3 | x8 | x8 | x8 |[M:7/8] x7 |] %19

